src/frontend_kids/assets/images/callout-bottom-middle.svg

<svg width="252" height="219" viewBox="0 0 252 219" fill="none" xmlns="http://www.w3.org/2000/svg">
<g filter="url(#filter0_d_412_1091)">
<path d="M121.644 203.926L96.5598 142.789H36.7671C19.8019 142.789 6 128.987 6 112.022V35.7671C6 18.8019 19.8019 5 36.7671 5H206.519C223.484 5 237.287 18.8019 237.287 35.7671V112.022C237.287 128.987 223.485 142.789 206.519 142.789H146.727L121.644 203.926ZM36.7671 12.118C23.7267 12.118 13.1179 22.7267 13.1179 35.7671V112.022C13.1179 125.063 23.7267 135.671 36.7671 135.671H101.332L121.643 185.174L141.954 135.671H206.518C219.559 135.671 230.168 125.063 230.168 112.022V35.7671C230.168 22.7267 219.559 12.118 206.518 12.118H36.7671Z" fill="#00A4D7"/>
</g>
<rect x="12" y="12" width="218" height="124" rx="24" fill="white"/>
<path d="M121.5 186L101.5 136L142 136L121.5 186Z" fill="white"/>
<defs>
<filter id="filter0_d_412_1091" x="0" y="0" width="251.287" height="218.926" filterUnits="userSpaceOnUse" color-interpolation-filters="sRGB">
<feFlood flood-opacity="0" result="BackgroundImageFix"/>
<feColorMatrix in="SourceAlpha" type="matrix" values="0 0 0 0 0 0 0 0 0 0 0 0 0 0 0 0 0 0 127 0" result="hardAlpha"/>
<feOffset dx="4" dy="5"/>
<feGaussianBlur stdDeviation="5"/>
<feComposite in2="hardAlpha" operator="out"/>
<feColorMatrix type="matrix" values="0 0 0 0 0 0 0 0 0 0 0 0 0 0 0 0 0 0 0.25 0"/>
<feBlend mode="normal" in2="BackgroundImageFix" result="effect1_dropShadow_412_1091"/>
<feBlend mode="normal" in="SourceGraphic" in2="effect1_dropShadow_412_1091" result="shape"/>
</filter>
</defs>
</svg>

<svg width="252" height="219" fill="none" xmlns="http://www.w3.org/2000/svg"><g filter="url(#a)"><path d="M121.644 203.926 96.56 142.789H36.767C19.802 142.789 6 128.987 6 112.022V35.767C6 18.802 19.802 5 36.767 5H206.52c16.965 0 30.768 13.802 30.768 30.767v76.255c0 16.965-13.802 30.767-30.768 30.767h-59.792l-25.083 61.137zM36.767 12.118c-13.04 0-23.65 10.609-23.65 23.65v76.254c0 13.041 10.61 23.649 23.65 23.649h64.565l20.311 49.503 20.311-49.503h64.564c13.041 0 23.65-10.608 23.65-23.649V35.767c0-13.04-10.609-23.649-23.65-23.649H36.768z" fill="#00A4D7"/></g><rect x="12" y="12" width="218" height="124" rx="24" fill="#fff"/><path d="m121.5 186-20-50H142l-20.5 50z" fill="#fff"/><defs><filter id="a" x="0" y="0" width="251.287" height="218.926" filterUnits="userSpaceOnUse" color-interpolation-filters="sRGB"><feFlood flood-opacity="0" result="BackgroundImageFix"/><feColorMatrix in="SourceAlpha" values="0 0 0 0 0 0 0 0 0 0 0 0 0 0 0 0 0 0 127 0" result="hardAlpha"/><feOffset dx="4" dy="5"/><feGaussianBlur stdDeviation="5"/><feComposite in2="hardAlpha" operator="out"/><feColorMatrix values="0 0 0 0 0 0 0 0 0 0 0 0 0 0 0 0 0 0 0.25 0"/><feBlend in2="BackgroundImageFix" result="effect1_dropShadow_412_1091"/><feBlend in="SourceGraphic" in2="effect1_dropShadow_412_1091" result="shape"/></filter></defs></svg>
